static/img/lambda-icon.svg

<svg width="50" height="50" viewBox="0 0 50 50" fill="none" xmlns="http://www.w3.org/2000/svg">
<g clip-path="url(#clip0_932_2603)">
<path d="M25 50C38.8071 50 50 38.8071 50 25C50 11.1929 38.8071 0 25 0C11.1929 0 0 11.1929 0 25C0 38.8071 11.1929 50 25 50Z" fill="white"/>
<path d="M19.98 18.3161L20.0145 18.4122C20.3225 19.3083 21.1481 19.9241 22.0947 19.9638C23.0415 20.0036 23.9157 19.4592 24.2977 18.5921L28.4875 9.13572C28.8715 8.26483 28.6805 7.24747 28.0069 6.57508C27.4716 6.04038 26.7079 5.80257 25.9635 5.93883C25.2192 6.07509 24.5892 6.56807 24.2781 7.25775L20.0589 16.6229C19.8179 17.1567 19.7897 17.7622 19.98 18.3161Z" fill="#E11F53"/>
<path d="M27.0163 16.2657C27.2568 15.7218 27.7133 15.3028 28.2758 15.1098L33.5029 13.3182C34.2745 13.0532 35.1296 13.2511 35.7063 13.8283L35.7751 13.8973C36.3015 14.4225 36.5166 15.1836 36.343 15.9065C36.1695 16.6295 35.6323 17.21 34.9249 17.4388L29.6313 19.164C28.829 19.4252 27.9482 19.1901 27.3829 18.5636C26.8178 17.9372 26.6742 17.037 27.0163 16.2657Z" fill="#E11F53"/>
<path d="M31.5755 19.9201L31.4795 19.9521C30.5855 20.2621 29.9719 21.0871 29.9321 22.0325C29.8924 22.978 30.4346 23.8516 31.2995 24.2353L40.756 28.4251C41.6256 28.8118 42.6437 28.6226 43.3165 27.9495C43.8525 27.4148 44.0915 26.651 43.9556 25.9063C43.8198 25.1617 43.3266 24.5313 42.6364 24.2205L33.2711 19.9988C32.7367 19.7573 32.1301 19.7291 31.5755 19.9201Z" fill="#4C8BF5"/>
<path d="M33.6825 27.023C34.2264 27.2642 34.6459 27.7202 34.8409 28.2824L36.6325 33.5022C36.8964 34.2738 36.6985 35.1283 36.1224 35.7056L36.0534 35.7746C35.5286 36.2973 34.7705 36.5109 34.0501 36.3392C33.3295 36.1674 32.7494 35.6348 32.5168 34.9315L30.7916 29.6379C30.5326 28.8375 30.7673 27.9597 31.3911 27.3953C32.0151 26.8309 32.912 26.6852 33.6825 27.023Z" fill="#4C8BF5"/>
<path d="M29.9268 31.5776L29.8948 31.4841C29.5835 30.5928 28.7604 29.9817 27.8174 29.9416C26.8744 29.9013 26.0023 30.4403 25.6163 31.3016L21.4266 40.7581C21.0401 41.6284 21.2293 42.6471 21.9023 43.3211C22.4376 43.8558 23.2014 44.0936 23.9456 43.9573C24.69 43.8211 25.3199 43.3281 25.6311 42.6384L29.8528 33.2732C30.0928 32.7382 30.1193 32.1316 29.9268 31.5776Z" fill="#43C6AC"/>
<path d="M22.8238 33.6803C22.5831 34.2249 22.1256 34.6441 21.562 34.8362L16.3372 36.6279C15.5612 36.8978 14.6992 36.6997 14.1191 36.1177L14.0526 36.0487C13.5315 35.5219 13.3208 34.7626 13.4962 34.0426C13.6715 33.3227 14.2077 32.7453 14.9127 32.5171L20.2065 30.7919C21.0062 30.5347 21.8826 30.7693 22.4467 31.3919C23.011 32.0144 23.1585 32.9097 22.8238 33.6803Z" fill="#43C6AC"/>
<path d="M18.3164 29.9906L18.4125 29.9586C19.3086 29.6506 19.9245 28.825 19.9642 27.8782C20.004 26.9316 19.4595 26.0573 18.5925 25.6752L9.13607 21.4856C8.26545 21.0993 7.2468 21.2906 6.57545 21.9661C6.04073 22.5015 5.80293 23.2652 5.9392 24.0096C6.07546 24.7537 6.56842 25.3838 7.25811 25.6948L16.6232 29.9142C17.1574 30.1542 17.7629 30.1816 18.3164 29.9906Z" fill="#F8B233"/>
<path d="M16.1674 22.9619C15.6269 22.7191 15.211 22.2631 15.0189 21.7025L13.2199 16.4777C12.9504 15.7017 13.1486 14.84 13.73 14.2596L13.799 14.1906C14.3251 13.6659 15.086 13.4517 15.8086 13.6251C16.5313 13.7985 17.1121 14.3345 17.343 15.0409L19.0681 20.3347C19.337 21.1391 19.1048 22.0265 18.476 22.5959C17.8474 23.1652 16.9414 23.3089 16.1674 22.9619Z" fill="#F8B233"/>
</g>
<defs>
<clipPath id="clip0_932_2603">
<rect width="50" height="50" fill="white"/>
</clipPath>
</defs>
</svg>

<svg xmlns="http://www.w3.org/2000/svg" width="50" height="50" fill="none"><g clip-path="url(#a)"><path fill="#fff" d="M25 50c13.807 0 25-11.193 25-25S38.807 0 25 0 0 11.193 0 25s11.193 25 25 25"/><path fill="#E11F53" d="m19.98 18.316.035.096a2.302 2.302 0 0 0 4.283.18l4.19-9.456a2.304 2.304 0 0 0-4.21-1.878l-4.22 9.365a2.3 2.3 0 0 0-.078 1.693m7.036-2.05c.24-.544.697-.963 1.26-1.156l5.227-1.792a2.13 2.13 0 0 1 2.203.51l.07.07a2.134 2.134 0 0 1-.851 3.54l-5.294 1.726a2.137 2.137 0 0 1-2.615-2.898"/><path fill="#4C8BF5" d="m31.576 19.92-.096.032a2.304 2.304 0 0 0-.18 4.283l9.456 4.19a2.302 2.302 0 0 0 1.88-4.205L33.271 20a2.3 2.3 0 0 0-1.695-.079m2.107 7.102c.543.241.963.697 1.158 1.26l1.791 5.22a2.14 2.14 0 0 1-.51 2.203l-.069.069a2.137 2.137 0 0 1-3.536-.843l-1.725-5.294a2.137 2.137 0 0 1 2.89-2.615"/><path fill="#43C6AC" d="m29.927 31.578-.032-.094a2.304 2.304 0 0 0-4.279-.182l-4.19 9.456a2.304 2.304 0 0 0 2.52 3.2 2.3 2.3 0 0 0 1.685-1.32l4.222-9.365a2.3 2.3 0 0 0 .074-1.695m-7.103 2.102c-.24.545-.698.964-1.262 1.156l-5.225 1.792a2.14 2.14 0 0 1-2.218-.51l-.066-.07a2.134 2.134 0 0 1 .86-3.53l5.293-1.726a2.14 2.14 0 0 1 2.618 2.888"/><path fill="#F8B233" d="m18.316 29.99.097-.031a2.302 2.302 0 0 0 .18-4.284l-9.457-4.19a2.304 2.304 0 0 0-1.878 4.21l9.365 4.22a2.3 2.3 0 0 0 1.693.076m-2.149-7.029a2.14 2.14 0 0 1-1.148-1.26l-1.8-5.224a2.14 2.14 0 0 1 .511-2.218l.069-.07a2.14 2.14 0 0 1 3.544.85l1.725 5.295a2.137 2.137 0 0 1-2.9 2.627"/></g><defs><clipPath id="a"><path fill="#fff" d="M0 0h50v50H0z"/></clipPath></defs></svg>
